X:1
T:Title
%%score { 1 | 2 }
L:1/8
M:6/4
K:G
V:1 treble nm="Grand Piano"
V:2 bass 
V:1
 z6[Q:1/4=126] [B,DG]6 | [DGB]4 [DGB]2 [DFA]4 [DGB]2 | [EGc]6 [DGB]6 | %3
 [DFA]4 [CFA]2 [B,EG]4 [DFA]2 |[M:3/4] B6 | G6 |[M:6/4] B4 B2 A4 B2 | [Gc]4 [Ge]2 [Fd]4 [DFA]2 | %8
 [DGB]4 [EGc]2 [DGB]4 [CFA]2 |[M:3/4] G6 | d6 |[M:6/4] d4 B2 [Gc]4 d2 | e6 d6 | %13
 c4 [DAd]2 [DGB]4 [EGc]2 |[M:3/4] [FA]6 | [Fd]6 |[M:6/4] B4 B2 A4 B2 | [Gc]4 [Ge]2 [Fd]4 [DFA]2 | %18
 [DGB]4 [EGc]2 [DGB]4 [CFA]2 |[M:3/4] [B,DG]6 |] %20
V:2
 z6 G,6 | G,4 G,2 D,4 G,2 | C,6 G,,6 | D,4 D,2 E,4 D,2 |[M:3/4][K:treble] [G,DG]6 | [G,B,D]6 | %6
[M:6/4] [G,DG]4 [G,DG]2 [F,D]4 [G,DG]2 | [E,C]4 [C,C]2 [D,A,]4 D,2 | G,4 C,2 D,4 D,2 | %9
[M:3/4][K:treble] [G,B,D]6 | [G,B,G]6 |[M:6/4] [B,DG]4 [G,DG]2 [E,C]4 [G,B,G]2 | [CG]6 [B,DG]6 | %13
 [A,EA]4[K:bass] F,2 G,4 C,2 |[M:3/4] [D,D]6 | [D,D]6 | %16
[M:6/4][K:treble] [G,DG]4 [G,DG]2[K:bass] [F,D]4 [G,DG]2 | [E,C]4 [C,C]2 [D,A,]4 D,2 | %18
 G,4 C,2 D,4 D,2 |[M:3/4] G,,6 |] %20

